X: 14412
T: Galway Girl, The
R: reel
M: 4/4
K: Dmajor
DE|F2 (3EFE D2 DE|F2 F2 FED A|B2 B2 Bcdc|B2 A2 A2 FA|
B2 B2 A2 F2|GF G2 F2 D2|E2 E2 EFGF|E2 D2 D2 A2|
B3 AB3 AB2|c2 d2 B2 A2|ABAG F2 E2-|E2 A2 B2 B2|
A2 F2 GA G2|F2 D2 E2 ED|EFGF E2 D2|D4 z2:|

